X: 1
T: ALLY CROAKER'S FAVORITE -- REEL
B: Ryan's Mammoth Collection of Fiddle Tunes
R: reel
M: C|
L: 1/8
Z: Contributed 20010522173529 by John Chambers jc:trillian.mit.edu
K: Ador
  vABde f2fe | f2fa gee2 | ABde f2fa | gedB  BAA2 \
|  ABde f2fe | f2fa gee2 | ABde f2fa | gedB  BAA2 :|
|: a2af g2ge | a2af gee2 | a2af g2fe | dfed ^cAA2 \
|  a2af g2ge | a2af gee2 | ABde f2fa | gedB  BAA2 :|
